X:6
T:Walter Bulwer's Polka No. 1
R:Polka
M:4/4
L:1/8
Z: Steve Mansfield 17/09/2006
K:G
Bc | dcBd g3f | e2A2A2B2 | cBAc f3e | d2B2B2Bc | dcBd g3f | e2A2A2G2 | 
FGAB cdef |1 g2g2g2 :|2 g2g2 g4 |:[K:D] a2fg a2fg | agfge4 | e2a2gfe2 | 
dcde fefg | a2fg a2fg | agfge4 | e2a2 gfe2 |1 d2f2d4 :|2 d2f2d2 ||
<end>
<start>
